src/images/mesh-icon/icon_jobs.svg

<svg height="20" viewBox="0 0 20 20" width="20" xmlns="http://www.w3.org/2000/svg"><g fill="none" fill-rule="evenodd"><path d="m4.88463569 14.010821c1.18998962 1.5155844 3.03897936 2.489179 5.11536431 2.489179 3.5898509 0 6.5-2.9101491 6.5-6.5m-1.3884475-4.015671c-1.1901242-1.51281111-3.0373833-2.484329-5.1115525-2.484329-3.58985087 0-6.5 2.91014913-6.5 6.5" stroke="#79879c" stroke-width="1.392857"/><g fill="#79879c"><path d="m4.61106741 12.4636238 1.24642107 1.6080974c.12460499.1607619.09529405.3920974-.0654678.5167024-.06456311.0500423-.14393116.0771997-.22561728.0771997h-2.4960055c-.20339807 0-.36828478-.1648867-.36828478-.3682848 0-.081841.02726039-.1613505.07747691-.2259745l1.24958444-1.6080974c.12480226-.1606088.35617359-.1896357.51678234-.0648334.0243469.0189189.04622157.0408205.0651106.0651906z" transform="matrix(-.76604444 .64278761 .64278761 .76604444 -.973171 .354205)"/><path d="m15.8766267 5.63372989 1.246421 1.60809746c.124605.16076185.0952941.39209737-.0654678.51670235-.0645631.05004226-.1439311.07719971-.2256173.07719971h-2.4960055c-.203398 0-.3682847-.16488672-.3682847-.36828478 0-.08184102.0272603-.16135055.0774769-.22597448l1.2495844-1.60809746c.1248023-.16060875.3561736-.18963565.5167823-.06483339.0243469.01891894.0462216.04082049.0651107.06519059z" transform="matrix(.76604444 -.64278761 -.64278761 -.76604444 7.854272 21.579435)"/><path d="m10 11.5c.8284271 0 1.5-.6715729 1.5-1.5 0-.41656917-.1698082-.79347751-.443981-1.06528122-.2710719-.26872973-.644161-.43471878-1.056019-.43471878-.82842712 0-1.5.67157288-1.5 1.5 0 .246266.05934627.4786709.16451745.6836934.07458218.1453918.17220943.2770131.28805967.3900419.10525083.1026875.22554266.1900289.35725956.2584084.20659771.1072532.4413032.1678563.69016332.1678563z"/></g><path d="m10 13.5c1.9329966 0 3.5-1.5670034 3.5-3.5 0-.97199474-.3962192-1.85144752-1.0359556-2.48565619-.6325012-.62703603-1.5030425-1.01434381-2.4640444-1.01434381-1.93299662 0-3.5 1.56700338-3.5 3.5 0 .5746207.13847463 1.1168988.38387406 1.5952847.17402507.3392475.40182199.6463639.67213923.9100976.24558526.2396042.5262662.4434009.83360563.6029531.48206131.2502573 1.02970747.3916646 1.61038108.3916646z" stroke="#79879c" stroke-width="1.5"/></g></svg>

<?xml version="1.0" encoding="UTF-8"?>
<svg width="20px" height="20px" viewBox="0 0 20 20" version="1.1" xmlns="http://www.w3.org/2000/svg" xmlns:xlink="http://www.w3.org/1999/xlink">
    <title>icon_jobs</title>
    <g id="Dashboard" stroke="none" stroke-width="1" fill="none" fill-rule="evenodd">
        <g id="03-开发环境-创建环境-创建共享开发环境-第一步填充态-流量生成" transform="translate(-1099.000000, -409.000000)">
            <g id="创建共享开发环境" transform="translate(244.000000, 104.000000)">
                <g id="Right" transform="translate(420.000000, 0.000000)">
                    <g id="集群" transform="translate(0.000000, 126.000000)">
                        <g id="编组-17" transform="translate(24.000000, 64.000000)">
                            <g id="编组-14" transform="translate(16.000000, 64.000000)">
                                <g id="编组-7备份-28" transform="translate(394.000000, 12.000000)">
                                    <g id="编组-22" transform="translate(0.000000, 38.000000)">
                                        <g id="编组-21" transform="translate(1.000000, 1.000000)">
                                            <path d="M4.88463569,14.010821 C6.07462531,15.5264054 7.92361505,16.5 10,16.5 C13.5898509,16.5 16.5,13.5898509 16.5,10 M15.1115525,5.984329 C13.9214283,4.47151789 12.0741692,3.5 10,3.5 C6.41014913,3.5 3.5,6.41014913 3.5,10" id="形状" stroke="#79879C" stroke-width="1.39285714"></path>
                                            <path d="M4.61106741,12.4636238 L5.85748848,14.0717212 C5.98209347,14.2324831 5.95278253,14.4638186 5.79202068,14.5884236 C5.72745757,14.6384659 5.64808952,14.6656233 5.5664034,14.6656233 L3.0703979,14.6656233 C2.86699983,14.6656233 2.70211312,14.5007366 2.70211312,14.2973385 C2.70211312,14.2154975 2.72937351,14.135988 2.77959003,14.071364 L4.02917447,12.4632666 C4.15397673,12.3026578 4.38534806,12.2736309 4.54595681,12.3984332 C4.57030371,12.4173521 4.59217838,12.4392537 4.61106741,12.4636238 Z" id="三角形" fill="#79879C" transform="translate(4.317816, 13.377087) scale(1, -1) rotate(-140.000000) translate(-4.317816, -13.377087) "></path>
                                            <path d="M15.8766267,5.63372989 L17.1230477,7.24182735 C17.2476527,7.4025892 17.2183418,7.63392472 17.0575799,7.7585297 C16.9930168,7.80857196 16.9136488,7.83572941 16.8319626,7.83572941 L14.3359571,7.83572941 C14.1325591,7.83572941 13.9676724,7.67084269 13.9676724,7.46744463 C13.9676724,7.38560361 13.9949327,7.30609408 14.0451493,7.24147015 L15.2947337,5.63337269 C15.419536,5.47276394 15.6509073,5.44373704 15.811516,5.5685393 C15.8358629,5.58745824 15.8577376,5.60935979 15.8766267,5.63372989 Z" id="三角形备份" fill="#79879C" transform="translate(15.583376, 6.547193) scale(-1, 1) rotate(-140.000000) translate(-15.583376, -6.547193) "></path>
                                            <path d="M10,11.5 C10.8284271,11.5 11.5,10.8284271 11.5,10 C11.5,9.58343083 11.3301918,9.20652249 11.056019,8.93471878 C10.7849471,8.66598905 10.411858,8.5 10,8.5 C9.17157288,8.5 8.5,9.17157288 8.5,10 C8.5,10.246266 8.55934627,10.4786709 8.66451745,10.6836934 C8.73909963,10.8290852 8.83672688,10.9607065 8.95257712,11.0737353 C9.05782795,11.1764228 9.17811978,11.2637642 9.30983668,11.3321437 C9.51643439,11.4393969 9.75113988,11.5 10,11.5 Z" id="椭圆形" fill="#79879C" transform="translate(10.000000, 10.000000) rotate(-360.000000) translate(-10.000000, -10.000000) "></path>
                                            <path d="M10,13.5 C11.9329966,13.5 13.5,11.9329966 13.5,10 C13.5,9.02800526 13.1037808,8.14855248 12.4640444,7.51434381 C11.8315432,6.88730778 10.9610019,6.5 10,6.5 C8.06700338,6.5 6.5,8.06700338 6.5,10 C6.5,10.5746207 6.63847463,11.1168988 6.88387406,11.5952847 C7.05789913,11.9345322 7.28569605,12.2416486 7.55601329,12.5053823 C7.80159855,12.7449865 8.08227949,12.9487832 8.38961892,13.1083354 C8.87168023,13.3585927 9.41932639,13.5 10,13.5 Z" id="椭圆形" stroke="#79879C" stroke-width="1.5" transform="translate(10.000000, 10.000000) rotate(-360.000000) translate(-10.000000, -10.000000) "></path>
                                        </g>
                                    </g>
                                </g>
                            </g>
                        </g>
                    </g>
                </g>
            </g>
        </g>
    </g>
</svg>
